X: 030056
T: Cuilin House (The)
C: J. O'Sullivan
Z: B.Black
R: reel
M: 4/4
L: 1/8
K: D
DFAF dBAF | DFAF BFAF | DFAF dBAF | GBFB E3 F |
DFAF dBAF | DFAF BFAF | GE (3EDE FD (3DCD |\
EA, A,2 EFGE :|
af f2 bf f2 | afef eB B2 | af f2 bf f2 | ebfb e3 b |
af f2 bf f2 | afef eB B2 | dfaf bfaf | egfe d4 :|
